**kern	**kern	**kern
*staff3	*staff2	*staff1
*tb24	*tb24	*tb24
=1-	=1-	=1-
*clefF4	*clefG2	*clefG2
*k[b-]	*k[b-]	*k[b-]
*M3/4	*M3/4	*M3/4
4D\ 4F\	4A/ 4d/	4d/
4D\ 4F\	4A/ 4d/	4f/
4D\ 4F\	4A/ 4d/	4d/
=2	=2	=2
2C;\ 2E;\	2A/ 2e/	2a;/
4BB-/	8d/L 8f/L	4dd\
.	8e/J 8g/J	.
=3	=3	=3
4AA/	8f/L 8a/L	4cc\
.	8c/	.
4r	8f/	8r
.	8a/J	8cc\
4A\ 4c\	4f#/ 4dd/	8dd\
.	.	8a/
=4	=4	=4
!!linebreak:original
4.G\ 4.d\	8f#/L	(4cc\
.	8a/	.
.	8g/ 8b-/	8b-\)
8GG/L	8d/ 8b-/	8b-\
8GG/	8d/ 8b-/	8b-\
8AA/J	8c/J 8a/J	8a/
=5	=5	=5
4BB-/	8d/L 8a/L	(4a/
.	8f#/	.
8r	8g/	8g/)
8B-\L	8d/	4r
8B-\	8d/	.
8A\J	8c/J	8g/
=6	=6	=6
4B-\	4d/ 4g/	8dd\
.	.	8cc\
4r	4r	8cc\L
.	.	8b-\J
4B-\	4d/ 4f/	8a/L
.	.	8g#/J
=7	=7	=7
2A\	4d/ 4f/	(4g#/
.	4c#/ 4e/	4a/)
4r	4r	4r
=8	=8	=8
!!linebreak:original
4.GG/	8r	4b-\
.	8d/L	.
.	8g/	4r
8G\L 8B-\L	8d/ 8b-/	.
8G\ 8B-\	8d/ 8a/	4r
8G\J 8B-\J	8d/J 8b-/J	.
=9	=9	=9
4.FF/	8r	4dd\
.	8d/L	.
.	8f/	8r
8F\L 8B-\L	8d/ 8f/	8dd\
8F\ 8B-\	8d/ 8f/	8cc\
8F\J 8B-\J	8d/J 8f/J	8b-\
=10	=10	=10
4.FF/	8r	4a/
.	8c/L	.
.	8e-/	4r
8F\L 8c\L	8e-/ 8a/	.
8F\ 8c\	8e-/ 8g#/	8r
8F\J 8c\J	8e-/J 8a/J	8a/
=11	=11	=11
4.FF#/	8r	4.cc\
.	8c/L	.
.	8d/	.
8F#\L 8c\L	8d/ 8a/	8cc\
8F#\ 8c\	8d/ 8a/	8b-\
8F#\J 8c\J	8d/J 8a/J	8a/
=12	=12	=12
!!linebreak:original
4.GG/	8r	4b-\
.	8d/L	.
.	8g/	8r
8G\L	8d/ 8g/	8b-\
8A\	8d/ 8f/	8a/
8B-\J	8d/J 8e/J	8g#/
=13	=13	=13
4A\	4d/ 4f/	4a/
4G\	4d/ 4e/	4r
4AA\ 4G\	4c#/ 4e/	4a/
=14	=14	=14
4DD\ 4D\	8dd/L	4d/
.	8ff/	.
4r	8d\	4r
.	8f\	.
8AA\L 8C#\L 8G\L	8A\ 8e\	4r
8E\J	8c#\J	.
=15	=15	=15
*^	*	*
4G/	2D\	[4A/ [4c#/	2.r
4F/	.	4A/] 4d/	.
*v	*v	*	*
4r	4r	.
=16||	=16||	=16||
!!linebreak:original
4D\ 4F\	4A/ 4d/	4d/
4D\ 4F\	4A/ 4d/	4f/
4D\ 4F\	4A/ 4d/	4d/
=17	=17	=17
2C;\ 2E;\	2A^;/ 2c^;/] 2e^;/	2a;/
4BB-/	8d/L 8f/L	4dd\
.	8e/J 8g/J	.
=18	=18	=18
2AA/	8f/L 8a/L	4cc\
.	8c/	.
.	8f/	8r
.	8a/J	8cc\
4A\ 4c\	4f#/ 4dd/	8dd\
.	.	8a/
=19	=19	=19
4.GG/	8a/L	(4cc\
.	8f#/	.
.	8g/	8b-\)
8GG/L	8d/ 8g/	8b-\
8GG/	8d/ 8g/	8b-\
8AA/J	8c/J 8f#/J	8a/
=20	=20	=20
!!linebreak:original
4.BB-/	8d/L	(4a'/
.	8f#/	.
.	8g/	4g/)
8B-\L	8d/	.
8B-\	8d/	8r
8A\J	8c/J	8g/
=21	=21	=21
4B-\	4d/	8g\L
.	.	8dd\
4r	4r	8cc\J
.	.	8b-\
4B-\	4d/	8a/
.	.	8g/
=22	=22	=22
8BB-\L	8r	(4f/
8B-\	8d-/L	.
8B-\	8d-/	4e/)
8A\	8c/	.
8B-\	8d-/	8r
8B-\J	8d-/J	8e/
=23	=23	=23
!!linebreak:original
4A-\	4c/	8f/L
.	.	8cc/J
4r	4r	8b-\
.	.	8a-/L
4A-\	4c/ 4e-/	8g/J
.	.	8f#/
=24	=24	=24
2G\	4c/ 4e-/	(4f#/
.	4Bn/ 4d/	4g/)
4r	4r	4r
=25	=25	=25
2C/	2e-/ 2g/	4ee-\
.	.	8ee-\
.	.	8ee-\
4F\	4f/ 4a/	8dd\
.	.	8cc#\
=26	=26	=26
!!linebreak:original
2BB-/	8r	4dd\
.	8d/L	.
.	8f/	8r
.	8b-/J	8dd\
4r	4dd\	8b-\
.	.	8a/
=27	=27	=27
4r	4r	4g/
4AA/	4d/ 4f/ 4a/	4r
4AA\ 4G\	4c#/ 4e/ 4a/	4a/
=28	=28	=28
4DD/ 4D/	8F/L 8d/L	4d/
.	8A/	.
4r	8d/	4r
.	8f/J	.
8AA/L 8C#/L	8G/L 8e/L	4r
8E/J	8c#/J	.
=29	=29	=29
*^	*	*
4G/	2D\	4G/ 4c#/	2.r
4F/	.	4F/ 4d/	.
*v	*v	*	*
4r	4r	.
=30||	=30||	=30||
!!linebreak:original
4D\ 4F\	4A/ 4d/	4f/
4D\ 4F\	4A/ 4d/	4f/
4D\ 4F\	4A/ 4d/	4d/
=31	=31	=31
2C\ 2E\	2A/ 2e/	4a/
.	.	4r
4BB-/	8d/L 8f/L	4dd\
.	8e/J 8g/J	.
=32	=32	=32
4AA/	8f/L 8a/L	4cc\
.	8c/	.
4r	8f/	8r
.	8a/J	8cc\
4D\ 4d\	4f#/ 4dd/	8dd\
.	.	8a/
=33	=33	=33
*^	*	*
4e-/	2G\	4f#/ 4a/	(4cc\
4d;/	.	4g^;/ 4b-^;/	8b-;\)
.	.	.	8b-\
*v	*v	*	*
4r	4r	8a/
.	.	8g/
=34	=34	=34
!!linebreak:original
8r	8r	(4g/
8c\L	8e-/L	.
8c\	8e-/	4f#/)
8c\	8e-/	.
8c\	8e-/	4r
8c\J	8e-/J	.
=35	=35	=35
4B-\	4d/	8r
.	.	8g/
4r	4r	8f#/
.	.	8g/
4r	4r	8b-\
.	.	8g/
=36	=36	=36
8r	8r	(4fn/
8B-\L	8d-/L	.
8B-\	8d-/	4e/)
8B-\	8d-/	.
8An\	8c/	8r
8B-\J	8d-/J	8e/
=37	=37	=37
!!linebreak:original
4A-\	4c/	8f/L
.	.	8cc/
4r	4r	8b-/J
.	.	8a-/
4A-\ 4c\	4e-/	8g/
.	.	8f#/
=38	=38	=38
4G\ 4e-\	4f#/	(4cc\
8G\ 8d\	8g/	8bn\)
8r	8r	8g/
4r	4r	8a-/
.	.	8g/
=39	=39	=39
2C/	2e-/ 2g/	2ee-\
4F\	4f/ 4a/	8dd\L
.	.	8cc#\J
=40	=40	=40
!!linebreak:original
4.BB-/	8r	4dd\
.	8d/L	.
.	8f/	8r
8B-\L	8d/ 8f/	8dd\
8B-\	8d/ 8f/	8b-\
8B-\J	8d/J 8f/J	8a/
=41	=41	=41
4.BB-/	8r	4g#/
.	8d/L	.
.	8f/	4r
8B-\L	8d/ 8f/ 8dd/	.
8B-\	8d/ 8f/ 8b-/	4r
8B-\J	8d/J 8g#/J	.
=42	=42	=42
4A\	4d/ 4f/ 4a/	4r
4A\	4d/ 4e/	2a/
4AA\ 4G\	4c#/ 4e/	.
=43	=43	=43
6D\ 6F\	8d/L	4d/
.	8A/	.
6r	.	.
.	8d/	4r
6AA\ 6C#\ 6G\	.	.
.	8f/	.
4E\	8A/ 8e/	4r
.	8c#/J	.
=44	=44	=44
4D\ 4G\	[4A/ [4c#/	2.r
4D\ 4F\	4A/] 4d/	.
4r	4r	.
==	==	==
*-	*-	*-
